packages/kronos-fna-icons/src/drag.svg

<svg version="1.1" xmlns="http://www.w3.org/2000/svg" width="13" height="20" viewBox="0 0 13 20">
<title>drag</title>
<path d="M13 20h-4.875v-4.615h4.875v4.615zM4.875 20h-4.875v-4.615h4.875v4.615zM4.875 12.308h-4.875v-4.616h4.875v4.616zM13 12.308h-4.875v-4.616h4.875v4.616zM13 4.615h-4.875v-4.615h4.875v4.615zM4.875 4.615h-4.875v-4.615h4.875v4.615z"></path>
</svg>

<svg viewBox="0 0 13 20" xmlns="http://www.w3.org/2000/svg">
    <title>drag</title>
    <path d="M13 20H8.125v-4.615H13V20zm-8.125 0H0v-4.615h4.875V20zm0-7.692H0V7.692h4.875v4.616zm8.125 0H8.125V7.692H13v4.616zm0-7.693H8.125V0H13v4.615zm-8.125 0H0V0h4.875v4.615z" />
</svg>
